libs/ui/packages/crypto-icons/src/svg/SRN.svg

<svg width="24" height="24" viewBox="0 0 24 24" fill="none">
<path d="M11.7862 10.0749C12.0157 10.1687 12.2452 10.1214 12.4289 10.0749C12.5669 10.5429 12.7964 10.9637 13.0252 11.1504C12.8879 12.3204 12.4747 12.7412 12.0157 12.7412C11.3737 12.7412 11.0519 11.3844 11.0519 11.1512C11.1899 11.0574 11.6032 10.7762 11.7869 10.0749H11.7862ZM11.0977 14.1917C11.3737 13.9577 11.5567 13.5834 11.7862 12.9752C11.9699 13.0689 12.2452 13.0217 12.4289 12.9752C12.5669 13.6299 12.7042 14.0514 13.0252 14.2382C12.9337 14.9867 12.4747 15.5012 12.0614 15.5012C11.4652 15.5012 11.1899 14.5659 11.0977 14.1917ZM7.42643 15.6414C7.61018 15.4074 7.61018 15.0339 7.51868 14.3319C7.65593 14.3784 7.79393 14.3784 7.88618 14.3319C8.16068 14.9867 8.39018 15.4074 8.75768 15.6414C8.80343 15.9692 8.75768 16.3434 8.61968 16.3899C8.11493 16.6239 7.65593 16.0157 7.42718 15.6414H7.42643ZM5.49893 14.3784C5.59118 14.3784 5.63693 14.3784 5.72843 14.4257C6.05018 15.2672 6.60068 15.7352 6.60068 15.7352C6.78443 16.1094 6.87593 16.4837 6.73793 16.4837C6.32543 16.5302 6.00368 16.2497 5.68268 15.6414C5.72843 15.5012 5.68268 15.4074 5.49893 14.3784ZM4.25993 14.3784C4.71893 16.3434 5.59118 16.2497 5.54543 16.1559C5.36168 15.8289 5.17793 15.6887 4.99418 15.5484C4.58168 15.1269 4.25993 14.2382 4.25993 14.3784ZM9.85868 15.6414C10.1804 15.4074 10.2262 14.8929 10.2719 14.2389C10.4557 14.2847 10.6844 14.2847 10.8224 14.2389C10.9147 14.6589 11.0519 15.2672 11.4652 15.5484C11.4194 16.0629 11.2814 16.3434 10.9604 16.3899C10.7309 16.4837 10.0882 16.4837 9.85868 15.6414ZM5.91218 14.1917C6.09593 13.9577 6.14168 13.5834 6.18743 13.0689C6.32543 13.1154 6.50918 13.1154 6.59993 13.0689C6.73793 13.6764 6.96743 14.0514 7.24343 14.2389C7.33493 15.2207 7.24343 15.5484 7.05968 15.5484C6.64718 15.5484 6.09593 14.6589 5.91218 14.1909V14.1917ZM4.48943 14.1917C4.48943 14.0979 4.53518 13.4897 4.58168 13.0689H4.76468C4.99418 13.9577 5.31593 14.2389 5.31593 14.2389C5.54543 15.3144 5.54543 15.5949 5.36093 15.5012C4.94843 15.3609 4.62743 14.5659 4.48943 14.1917ZM8.16068 14.1917C8.39018 14.0042 8.52818 13.6772 8.61968 13.0689C8.84918 13.1619 9.07868 13.1154 9.21668 13.0689C9.35393 13.6764 9.58418 14.0514 9.90518 14.2389C9.90518 14.7527 9.85868 15.5949 9.21668 15.4539C8.66543 15.3144 8.20718 14.3784 8.16068 14.1917ZM7.74818 14.0514C7.19693 14.0514 6.87593 13.1619 6.87593 12.8814C7.15118 12.6009 7.28843 12.0864 7.42643 11.1977C7.51868 11.2442 7.65593 11.2442 7.79393 11.1977C7.83968 12.1802 8.11493 12.6009 8.34443 12.8349C8.25293 13.6299 8.02343 14.0514 7.74818 14.0514ZM4.90268 12.8814C4.99418 12.6939 4.99418 12.6474 5.27018 11.1977H5.49893C5.49893 12.1802 5.77418 12.6474 5.91218 12.8349C5.86643 13.3494 5.95793 14.0514 5.54468 14.0514C5.36168 14.0514 5.13218 13.8174 4.90268 12.8814ZM3.98468 11.2442C4.12268 11.2914 4.03043 12.5072 4.21418 12.9287C4.21418 12.9287 4.21418 14.0979 4.12268 14.0042C3.43418 13.1619 3.89318 11.1977 3.98468 11.2442ZM9.49193 12.8814C9.81293 12.6474 9.99668 12.1329 10.2719 11.1977C10.4557 11.2442 10.6844 11.2442 10.8224 11.1977C10.9147 11.8989 11.0977 12.4142 11.4652 12.7877C11.3737 13.5362 11.0062 14.0514 10.5472 14.0514C9.81293 14.0514 9.53768 13.0217 9.49193 12.8814ZM5.72843 11.0574C6.09593 10.9172 6.32543 10.1214 6.37118 10.0277C6.42168 10.073 6.48711 10.098 6.55493 10.098C6.62276 10.098 6.68819 10.073 6.73868 10.0277C6.73868 10.6359 6.92168 10.9172 7.05968 11.0102C6.92168 11.8052 6.73793 12.7412 6.32468 12.7412C5.95793 12.7412 5.77418 11.8989 5.72843 11.0574ZM4.58093 12.7877C4.25993 12.7877 4.16843 11.5719 4.25993 11.0574C4.25993 11.0574 4.53518 10.6359 4.71893 10.0277C4.76468 10.0277 4.85693 10.0749 4.90268 10.0277C4.85693 10.6359 4.94843 10.9172 5.03993 11.0574C5.03993 11.0574 4.81118 12.7877 4.58168 12.7877H4.58093ZM8.06918 11.0574C8.25293 10.9637 8.61968 10.4492 8.80343 9.98118C8.98718 10.0749 9.17093 10.0749 9.39968 10.0277C9.49193 10.5429 9.62918 10.8699 9.95093 11.0574C9.81293 11.8989 9.53768 12.7412 8.94143 12.7412C8.39018 12.7412 8.11493 11.6184 8.06918 11.0574ZM8.48168 9.79443C8.20718 10.5429 7.93118 10.9637 7.56443 10.9637C7.10543 10.9637 7.05968 9.98118 7.05968 9.88743C7.42718 9.60693 7.70168 9.04593 7.93118 8.57793H8.25293C8.16068 9.27918 8.34443 9.60693 8.48243 9.79443H8.48168ZM6.23318 8.62443C6.00368 9.27918 6.09593 9.60693 6.18818 9.84093C5.82068 10.7762 5.63693 11.0109 5.36168 11.0109C5.08643 10.9637 5.08643 10.4019 5.17793 9.93468C5.45318 9.74718 6.05018 8.67168 6.05018 8.62443H6.23318ZM4.90268 8.67168C5.03993 8.62443 4.53518 9.32643 4.58168 9.65418C4.62668 10.1214 4.07618 10.9172 4.03043 10.8699C3.84743 10.8234 4.21418 9.13893 4.90268 8.67168ZM11.4194 9.79443C11.2814 10.3089 11.0977 10.9637 10.3177 10.9637C9.90518 10.9172 9.67568 10.3562 9.58343 9.88743C10.0424 9.56043 10.2719 8.99868 10.4099 8.57793C10.5472 8.62443 10.7774 8.62443 10.9147 8.57793C11.0062 9.27918 11.2357 9.60693 11.4194 9.79443ZM5.17793 8.53068C5.26943 8.48418 5.86643 7.68918 6.18743 7.68918C6.37118 7.73568 5.86643 8.20368 5.91218 8.43768C5.77418 8.67168 5.13218 9.84018 4.90268 9.84018C4.71893 9.84018 4.71893 9.23268 5.17793 8.53068ZM16.4677 14.3319C16.4212 15.0332 16.4212 15.4074 16.5592 15.6414C16.3754 16.0164 15.8707 16.5774 15.3667 16.3899C15.1822 16.3434 15.1822 15.9692 15.2279 15.6414C15.6412 15.4074 15.9164 14.9402 16.1002 14.3319C16.1917 14.3784 16.3297 14.3784 16.4677 14.3319ZM18.3029 14.3319C18.3487 14.3784 18.4409 14.3784 18.5324 14.2847C18.3487 15.3144 18.3029 15.4074 18.3487 15.5484C18.0277 16.1559 17.7067 16.3899 17.2934 16.3899C17.1097 16.3899 17.2019 16.0629 17.4314 15.6414C17.4314 15.6414 17.9819 15.1742 18.3029 14.3319ZM19.0379 15.5484C18.8534 15.7352 18.6704 15.8289 18.5324 16.1559C18.4867 16.2497 19.3589 16.3434 19.8172 14.3784C19.7257 14.2382 19.4497 15.1269 19.0372 15.5484H19.0379ZM13.7594 14.3319C13.7594 14.8929 13.8974 15.4074 14.1727 15.7352C13.9432 16.5302 13.3012 16.5302 13.0717 16.4837C12.7499 16.3899 12.6584 16.1094 12.5669 15.6414C12.9337 15.3144 13.1174 14.7527 13.2089 14.3319C13.3927 14.3784 13.5764 14.3784 13.7594 14.3319ZM17.8897 13.0217C17.8897 13.5834 17.9362 13.9577 18.1657 14.1444C17.9819 14.6124 17.3857 15.5019 17.0182 15.5019C16.8344 15.5019 16.7429 15.1742 16.8344 14.1917C17.1097 14.0042 17.3392 13.5362 17.4772 13.0217C17.5402 13.057 17.6112 13.0756 17.6834 13.0756C17.7557 13.0756 17.8267 13.057 17.8897 13.0217ZM19.5419 13.1154C19.5419 13.4904 19.5419 14.0979 19.6342 14.2382C19.4504 14.6132 19.1294 15.4082 18.7619 15.5484C18.5324 15.5949 18.5782 15.3144 18.8077 14.2847C18.8077 14.2847 19.1294 13.9577 19.3589 13.1154H19.5419ZM15.4574 13.0217C15.5497 13.6772 15.6412 14.0042 15.9164 14.1444C15.8714 14.3784 15.3659 15.3144 14.8612 15.4074C14.2184 15.5484 14.1727 14.6589 14.1727 14.1917C14.4937 14.0042 14.7232 13.5834 14.8612 13.0217C14.9992 13.0689 15.2287 13.1154 15.4574 13.0217ZM17.2019 12.8814C17.1554 13.1619 16.7887 14.0514 16.3297 14.0514C16.0544 14.0514 15.8249 13.5834 15.7334 12.8349C15.9629 12.6474 16.2382 12.1802 16.2839 11.1977C16.402 11.2445 16.5334 11.2445 16.6514 11.1977C16.8344 12.0399 16.9724 12.6009 17.2019 12.8814ZM18.8077 11.1977C19.0372 12.6474 19.0829 12.6947 19.1752 12.8814C18.9457 13.7702 18.7162 14.0514 18.5324 14.0514C18.1199 14.0514 18.2114 13.3029 18.1649 12.8349C18.3487 12.6474 18.5782 12.1802 18.5782 11.1977C18.6704 11.2442 18.7162 11.1977 18.8077 11.1977ZM19.7714 12.8814C20.0009 12.5072 19.9094 11.2914 20.0009 11.1977C20.1389 11.1504 20.5514 13.2092 19.8637 13.9577C19.7714 14.0514 19.7714 12.8814 19.7714 12.8814ZM13.8974 11.1977C14.0354 12.1329 14.2649 12.6474 14.6774 12.8814C14.6317 13.0217 14.2649 14.0514 13.6222 14.0514C13.1174 14.0979 12.8422 13.4897 12.7042 12.7877C13.0252 12.4142 13.2547 11.8989 13.3469 11.1977C13.4384 11.2442 13.6679 11.2442 13.8974 11.1977ZM17.7067 10.0277C17.7067 10.1214 17.9819 10.9172 18.3029 11.1504C18.3029 11.9454 18.0734 12.8349 17.7067 12.8349C17.2934 12.8349 17.1097 11.9462 16.9717 11.1039C17.1097 10.9637 17.2934 10.6359 17.2934 10.0749C17.3607 10.1017 17.4336 10.1114 17.5056 10.1032C17.5776 10.0949 17.6464 10.069 17.7059 10.0277H17.7067ZM19.7714 11.0574C19.8172 11.5719 19.7257 12.7877 19.4962 12.7412C19.2667 12.7412 19.0372 11.0102 19.0372 11.0102C19.1294 10.8699 19.2209 10.5429 19.1752 10.0277C19.2004 10.0504 19.2331 10.063 19.2671 10.063C19.301 10.063 19.3337 10.0504 19.3589 10.0277C19.5419 10.6359 19.7714 11.0574 19.7714 11.0574ZM15.2744 10.0277C15.4574 10.4492 15.7792 10.9637 16.0544 11.1039C16.0087 11.6657 15.6869 12.7877 15.1822 12.7877C14.4937 12.8349 14.3107 11.9927 14.1727 11.1039C14.4479 10.9164 14.6317 10.5429 14.6774 10.0749C14.8612 10.1214 15.0899 10.1214 15.2744 10.0277ZM16.4219 10.9172C16.1002 10.9637 15.8249 10.5422 15.5039 9.79443C15.6869 9.60693 15.8249 9.23268 15.7334 8.57793C15.8707 8.62443 15.9629 8.62443 16.0544 8.57793C16.3297 9.09243 16.6049 9.60693 16.9259 9.84093C16.9259 9.98118 16.8809 10.9172 16.4212 10.9172H16.4219ZM17.8897 9.79443C17.9362 9.60693 18.0277 9.27918 17.7524 8.57793H17.9362C17.9362 8.62443 18.5782 9.74793 18.8077 9.88743C18.8999 10.4019 18.8999 10.9172 18.6239 10.9637C18.3952 10.9637 18.2114 10.7297 17.8897 9.79368V9.79443ZM19.4497 9.65343C19.4962 9.32643 19.0372 8.62443 19.0829 8.67093C19.8179 9.13893 20.0932 10.8234 19.9552 10.8699C19.9094 10.9172 19.4047 10.0749 19.4504 9.65343H19.4497ZM13.6222 10.9172C12.9337 10.9637 12.7499 10.3089 12.6127 9.79443C12.8422 9.65343 13.0717 9.23268 13.1174 8.57793C13.2547 8.62443 13.4849 8.62443 13.6222 8.57793C13.7594 8.99868 13.9897 9.56043 14.3564 9.84093C14.3107 10.4019 14.0812 10.8699 13.6214 10.9172H13.6222ZM17.8897 7.68918C18.1192 7.68918 18.8077 8.48418 18.8534 8.53068C19.3589 9.27918 19.3589 9.84093 19.1752 9.84093C18.8999 9.84093 18.3029 8.67093 18.1657 8.43768C18.2107 8.20368 17.7067 7.68918 17.8897 7.68918ZM7.70168 7.82943C7.61018 8.10993 7.56443 8.39043 7.70168 8.53068C7.42643 9.09243 6.96743 9.88818 6.55418 9.84093C6.09593 9.74718 6.46268 8.67093 6.50918 8.57793C6.78443 8.43768 7.42643 7.54893 7.65668 7.54893C7.79393 7.59543 7.70168 7.82943 7.70168 7.82943ZM9.85868 7.78293C9.85868 8.06343 9.90518 8.39043 10.1339 8.53068C9.95093 9.09243 9.58343 9.84093 8.98643 9.79443C8.57393 9.74718 8.48243 9.04593 8.57393 8.53068C8.98643 8.39043 9.35393 7.50168 9.62918 7.50168C9.85868 7.50168 9.85868 7.73568 9.85868 7.78293ZM16.3762 8.53068C16.4677 8.39043 16.4677 8.11068 16.3762 7.82943C16.3762 7.78293 16.2839 7.54893 16.4212 7.54893C16.6507 7.54893 17.2934 8.43768 17.5687 8.57793C17.6144 8.67168 17.9812 9.74793 17.5229 9.84093C17.0639 9.88743 16.6507 9.04593 16.3754 8.53068H16.3762ZM13.9432 8.53068C14.1269 8.39043 14.1727 8.06343 14.2184 7.78293C14.2184 7.73568 14.2184 7.50168 14.4479 7.50168C14.6774 7.45518 15.1364 8.39043 15.5039 8.53068C15.6412 9.13893 15.5489 9.74718 15.0907 9.79443C14.4479 9.88743 14.1269 9.04593 13.9432 8.53068ZM12.0157 7.50168C12.4747 7.50168 12.4747 8.39043 12.8422 8.57793C12.8422 8.81193 12.7042 9.84093 11.9699 9.84093C11.3272 9.84093 11.1899 8.99868 11.1442 8.57793C11.6947 8.34393 11.5117 7.50168 12.0157 7.50168Z" fill="#1C1C1C"/>
</svg>

<svg width="24" height="24" viewBox="0 0 24 24" fill="none"><path fill="#1c1c1c" d="M11.786 10.075c.23.094.46.046.643 0 .138.468.367.889.596 1.075-.137 1.17-.55 1.591-1.01 1.591-.641 0-.963-1.357-.963-1.59.138-.094.551-.375.735-1.076m-.688 4.117c.276-.234.459-.609.688-1.217.184.094.46.047.643 0 .138.655.275 1.076.596 1.263-.091.749-.55 1.263-.964 1.263-.596 0-.871-.935-.963-1.31m-3.672 1.45c.184-.235.184-.608.093-1.31a.5.5 0 0 0 .367 0c.275.655.504 1.075.872 1.31.045.327 0 .701-.138.748-.505.234-.964-.374-1.193-.749M5.5 14.377c.092 0 .138 0 .23.048.321.841.872 1.31.872 1.31.183.373.275.748.137.748-.413.046-.734-.234-1.055-.843.045-.14 0-.234-.184-1.263m-1.24 0c.46 1.965 1.332 1.872 1.286 1.778-.183-.327-.367-.467-.55-.608-.413-.421-.735-1.31-.735-1.17m5.6 1.263c.321-.234.367-.748.413-1.402.184.046.412.046.55 0 .093.42.23 1.028.643 1.31-.046.514-.184.794-.505.84-.23.095-.872.095-1.101-.748m-3.947-1.45c.184-.233.23-.608.275-1.122.138.046.322.046.413 0 .138.607.367.982.643 1.17.092.982 0 1.31-.183 1.31-.413 0-.964-.89-1.148-1.358m-1.423 0c0-.093.046-.701.093-1.122h.183c.23.889.55 1.17.55 1.17.23 1.075.23 1.356.046 1.262-.413-.14-.734-.935-.872-1.31m3.672 0c.23-.187.367-.514.459-1.122a.87.87 0 0 0 .597 0c.137.607.367.982.688 1.17 0 .514-.046 1.356-.688 1.215-.552-.14-1.01-1.076-1.056-1.262m-.413-.14c-.551 0-.872-.89-.872-1.17.275-.28.412-.795.55-1.683.093.046.23.046.368 0 .046.982.32 1.403.55 1.637-.091.795-.32 1.216-.596 1.216m-2.845-1.17c.091-.187.091-.234.367-1.683H5.5c0 .982.275 1.45.413 1.637-.046.514.046 1.216-.367 1.216-.183 0-.413-.234-.642-1.17m-.918-1.637c.138.047.045 1.263.23 1.685 0 0 0 1.169-.092 1.075-.689-.842-.23-2.806-.138-2.76m5.507 1.637c.32-.234.505-.748.78-1.683a1.1 1.1 0 0 0 .55 0c.093.7.276 1.216.643 1.59-.091.748-.459 1.263-.918 1.263-.734 0-1.01-1.03-1.055-1.17m-3.764-1.824c.368-.14.597-.936.643-1.03a.275.275 0 0 0 .368 0c0 .609.183.89.32.983-.137.795-.321 1.731-.734 1.731-.367 0-.55-.842-.597-1.684m-1.147 1.73c-.321 0-.413-1.215-.321-1.73 0 0 .275-.421.459-1.03.046 0 .138.048.184 0-.046.609.045.89.137 1.03 0 0-.229 1.73-.458 1.73zm3.488-1.73c.184-.093.55-.608.734-1.076.184.094.368.094.597.047.092.515.23.842.55 1.03-.137.84-.412 1.683-1.009 1.683-.55 0-.826-1.123-.872-1.684m.413-1.263c-.275.749-.55 1.17-.918 1.17-.459 0-.504-.983-.504-1.077.367-.28.642-.841.871-1.31h.322c-.092.702.091 1.03.23 1.217zm-2.249-1.17c-.23.655-.137.983-.045 1.217-.367.935-.551 1.17-.826 1.17-.276-.047-.276-.61-.184-1.076.275-.188.872-1.263.872-1.31zm-1.33.048c.137-.048-.368.654-.321.982.045.467-.506 1.263-.552 1.216-.183-.047.184-1.731.873-2.198m6.516 1.122c-.138.515-.321 1.17-1.101 1.17-.413-.047-.642-.608-.735-1.077.46-.327.689-.888.827-1.31a.93.93 0 0 0 .505 0c.091.702.32 1.03.504 1.217M5.178 8.531c.091-.047.688-.842 1.01-.842.183.047-.322.515-.276.749-.138.234-.78 1.402-1.01 1.402-.183 0-.183-.607.276-1.31m11.29 5.8c-.047.702-.047 1.076.091 1.31-.184.375-.688.936-1.192.749-.185-.047-.185-.42-.14-.749.414-.234.69-.7.873-1.31.092.047.23.047.368 0m1.835 0c.046.047.138.047.23-.046-.184 1.03-.23 1.122-.184 1.263-.321.608-.642.842-1.056.842-.183 0-.091-.327.138-.749 0 0 .55-.467.872-1.31m.735 1.217c-.185.187-.368.28-.506.608-.045.094.827.187 1.285-1.778-.091-.14-.367.749-.78 1.17m-5.279-1.216c0 .56.138 1.075.414 1.403-.23.795-.872.795-1.101.749-.322-.094-.414-.375-.505-.843.367-.327.55-.888.642-1.31q.276.07.55 0m4.13-1.31c0 .561.047.936.277 1.122-.184.468-.78 1.358-1.148 1.358-.184 0-.275-.328-.184-1.31.276-.188.505-.656.643-1.17a.42.42 0 0 0 .413 0m1.653.093c0 .375 0 .983.092 1.123-.184.375-.505 1.17-.872 1.31-.23.047-.184-.234.046-1.263 0 0 .321-.327.55-1.17zm-4.085-.093c.093.655.184.982.46 1.122-.046.234-.551 1.17-1.056 1.263-.643.141-.688-.748-.688-1.215.32-.188.55-.609.688-1.17a.86.86 0 0 0 .596 0m1.745-.14c-.047.28-.413 1.17-.872 1.17-.276 0-.505-.469-.597-1.217.23-.188.505-.655.55-1.637.119.046.25.046.368 0 .183.842.321 1.403.55 1.683m1.606-1.684c.23 1.45.275 1.497.367 1.683-.23.89-.459 1.17-.643 1.17-.412 0-.32-.748-.367-1.216.184-.188.413-.655.413-1.637.092.046.138 0 .23 0m.963 1.683c.23-.374.138-1.59.23-1.683.138-.048.55 2.011-.137 2.76-.093.093-.093-1.077-.093-1.077m-5.874-1.683c.138.935.368 1.45.78 1.683-.045.14-.412 1.17-1.055 1.17-.505.047-.78-.561-.918-1.263.321-.374.55-.89.643-1.59.091.046.32.046.55 0m3.81-1.17c0 .093.275.89.596 1.122 0 .795-.23 1.685-.596 1.685-.414 0-.597-.889-.735-1.731.138-.14.321-.468.321-1.03a.44.44 0 0 0 .413-.046m2.064 1.03c.046.514-.045 1.73-.275 1.683-.23 0-.459-1.73-.459-1.73.092-.141.184-.468.138-.983a.137.137 0 0 0 .184 0c.183.608.412 1.03.412 1.03m-4.497-1.03c.183.421.505.936.78 1.076-.045.562-.367 1.684-.872 1.684-.688.047-.871-.795-1.01-1.684.276-.188.46-.561.505-1.03a.88.88 0 0 0 .597-.046m1.148.89c-.322.046-.597-.376-.918-1.124.183-.187.32-.561.23-1.216.137.046.229.046.32 0 .276.514.55 1.029.872 1.263 0 .14-.045 1.076-.505 1.076m1.468-1.124c.046-.187.138-.515-.138-1.216h.184c0 .046.642 1.17.872 1.31.092.514.092 1.03-.184 1.076-.229 0-.413-.234-.734-1.17m1.56-.14c.046-.328-.413-1.03-.367-.983.735.468 1.01 2.152.872 2.199-.046.047-.55-.795-.505-1.217m-5.828 1.263c-.688.047-.872-.608-1.01-1.123.23-.14.46-.561.505-1.216a.93.93 0 0 0 .505 0c.137.42.368.982.734 1.263-.045.56-.275 1.029-.735 1.076zM17.89 7.69c.23 0 .918.795.963.842.506.748.506 1.31.322 1.31-.275 0-.872-1.17-1.01-1.403.046-.234-.458-.749-.275-.749m-10.188.14c-.092.28-.138.561 0 .702-.276.561-.735 1.357-1.148 1.31-.458-.094-.091-1.17-.045-1.263.275-.14.917-1.03 1.148-1.03.137.047.045.281.045.281m2.157-.046c0 .28.046.607.275.748-.183.561-.55 1.31-1.148 1.263-.412-.047-.504-.748-.412-1.263.412-.14.78-1.03 1.055-1.03.23 0 .23.235.23.282m6.517.748c.092-.14.092-.42 0-.702 0-.046-.092-.28.045-.28.23 0 .872.889 1.148 1.029.045.094.412 1.17-.046 1.263-.46.046-.872-.795-1.148-1.31zm-2.433 0c.184-.14.23-.468.275-.748 0-.047 0-.281.23-.281.23-.047.688.888 1.056 1.029.137.608.045 1.216-.413 1.263-.643.093-.964-.748-1.148-1.263M12.016 7.5c.459 0 .459.89.826 1.077 0 .234-.138 1.263-.872 1.263-.643 0-.78-.842-.826-1.263.55-.234.368-1.076.872-1.076"/></svg>
